jsapp/svg-icons/qt-hidden-lock.svg

<svg height="642" viewBox="0 0 642 642" width="642" xmlns="http://www.w3.org/2000/svg"><path d="m517.18 441.11v.18h-.37v-.2c.03495-.05963.078787-.113583.13-.16h.06c.079919.036077.143923.100081.18.18zm-165.18 66.96c-.012278-12.125582 3.297507-24.022827 9.57-34.4l-14.57-11.28c-8.569777 1.655347-17.272189 2.528936-26 2.61-75.85 0-137.25-58.71-142.9-133.11l-104.9-81.07c-13.79 17.3-26.48 35.59-36.72 55.59-4.6392709 9.176998-4.6392709 20.013002 0 29.19 54.23 105.81 161.59 177.4 284.52 177.4 10.357389-.012285 20.706293-.593159 31-1.74zm59.84-157.35c11.589325-33.501894 3.509926-70.670781-20.941113-96.338583s-61.184073-35.541359-95.208887-25.591417c6.030108 8.171014 9.292014 18.054837 9.31 28.21-.149106 3.379324-.665479 6.73239-1.54 10l-73.61-56.89c25.56982-21.367938 57.827277-33.085376 91.15-33.11 38.169959-.021223 74.785006 15.121383 101.790246 42.096617s42.188543 63.573424 42.209754 101.743383v.16c0 2.26-.07 4.5-.18 6.73 44.717757-20.611803 97.379494-12.958256 134.38 19.53 2.17-3.85 4.29-7.73 6.31-11.67 4.639271-9.176998 4.639271-20.013002 0-29.19-54.22-105.81-161.58-177.4-284.51-177.4-51.485002.062388-102.133833 13.023703-147.32 37.7l-127.22-98.33c-3.3492342-2.6082596-7.5976977-3.7786394-11.8101325-3.2534917-4.2124349.5251477-8.0435158 2.7027726-10.6498675 6.0534917l-19.63 25.28c-5.42252309 6.975607-4.16453325 17.026096 2.81 22.45l387.13 299.21c4.094203-21.809079 13.944236-42.127144 28.53-58.85zm230.16 157.35v107.14c0 14.795708-11.994292 26.79-26.79 26.79h-196.42c-14.795708 0-26.79-11.994292-26.79-26.79v-107.14c0-14.795708 11.994292-26.79 26.79-26.79h13.39v-40.17c0-46.844792 37.975208-84.82 84.82-84.82s84.82 37.975208 84.82 84.82v40.18h13.39c14.791804 0 26.784479 11.988197 26.79 26.78zm-97.91 52c0-14.746003-11.953997-26.7-26.7-26.7s-26.7 11.953997-26.7 26.7 11.953997 26.7 26.7 26.7c14.730396 0 26.677932-11.929621 26.7-26.66zm13.09-119c0-22.190801-17.989199-40.18-40.18-40.18s-40.18 17.989199-40.18 40.18v40.18h80.36z"/></svg>

<svg id="Layer_1" data-name="Layer 1" xmlns="http://www.w3.org/2000/svg" viewBox="0 0 642 642"><path d="M517.18,441.11v.18h-.37v-.2a.68.68,0,0,1,.13-.16H517A.36.36,0,0,1,517.18,441.11ZM352,508.07a66.37,66.37,0,0,1,9.57-34.4L347,462.39A144.15,144.15,0,0,1,321,465c-75.85,0-137.25-58.71-142.9-133.11L73.2,250.82c-13.79,17.3-26.48,35.59-36.72,55.59a32.35,32.35,0,0,0,0,29.19C90.71,441.41,198.07,513,321,513a283,283,0,0,0,31-1.74Zm70.84-148.81-11-8.54A94.76,94.76,0,0,0,295.69,228.79,47.65,47.65,0,0,1,305,257a46.63,46.63,0,0,1-1.54,10l-73.61-56.89A142.31,142.31,0,0,1,321,177,143.92,143.92,0,0,1,465,320.84V321c0,2.26-.07,4.5-.18,6.73A124.61,124.61,0,0,1,599.2,347.26c2.17-3.85,4.29-7.73,6.31-11.67a32.35,32.35,0,0,0,0-29.19C551.29,200.59,443.93,129,321,129a308.15,308.15,0,0,0-147.32,37.7L46.46,68.37A16,16,0,0,0,24,71.17h0L4.37,96.45A16,16,0,0,0,7.18,118.9L394.31,418.11A124.47,124.47,0,0,1,422.84,359.26ZM642,508.07V615.21A26.79,26.79,0,0,1,615.21,642H418.79A26.79,26.79,0,0,1,392,615.21V508.07a26.79,26.79,0,0,1,26.79-26.79h13.39V441.11a84.82,84.82,0,0,1,169.64,0v40.18h13.39A26.79,26.79,0,0,1,642,508.07Zm-97.91,52a26.7,26.7,0,1,0-26.7,26.7A26.7,26.7,0,0,0,544.09,560.11Zm13.09-119a40.18,40.18,0,1,0-80.36,0v40.18h80.36Z"/></svg>
